X: 1
T:Tartan Man & The McGoo  "1998.3"
M:C|
L:1/8
Q:80
C:Duncan Bell
S:Hornpipe
K:HP
|: | {g}e3/2{A}e/2{g}e/2f/2{a}g/2f/2|
{g}e/2d/2{G}d/2e/2{gBd}B{e}A|
{Gdc}d3/2e/2{g}B/2d/2{g}d/2{G}d/2|  !
{a}g/2f/2{e}f/2g/2{a}e/2d/2{g}B/2d/2|
{g}e3/2{A}e/2{g}e/2f/2{a}g/2f/2|
{g}e/2d/2{G}d/2e/2{gBd}B{e}A|  !
{a}g/2f/2{g}e/2g/2{a}f/2e/2{g}G/2{d}B/2|
{gBd}B{e}A{GAG}|1 A2:|2
A|] |:  !
{g}B/2d/2|
{g}e{ag}a{AGAG}A3/2{d}B/2|
{g}A/2a/2{g}a/2e/2{A}e/2a/2g/2e/2|  !
{Gdc}d3/2e/2{g}B/2d/2{g}d/2{G}d/2|
{a}g/2f/2{e}f/2g/2{a}e/2d/2{g}B/2d/2|
{g}e{ag}a{AGAG}A3/2{d}B/2|  !
{g}A/2a/2{g}a/2e/2{A}e/2a/2g/2e/2|
{a}g/2f/2{g}e/2g/2{a}f/2e/2{g}G/2{d}B/2|
{gBd}B{e}A{GAG}A:| |:  !
{g}B/2d/2|
{gef}e{g}f/2d/2{gef}e{g}A/2{g}B/2|
e/2{g}e/2{A}e/2d/2{g}e/2f/2g/2e/2|  !
{Gdc}d3/2e/2{g}B/2d/2{g}d/2{G}d/2|
{a}g/2f/2{e}f/2g/2{a}e/2d/2{g}B/2d/2|
{gef}e{g}f/2d/2{gef}e{g}A/2{g}B/2|  !
e/2{g}e/2{A}e/2d/2{g}e/2f/2g/2a/2|
g/2f/2{g}e/2g/2{a}f/2e/2{g}G/2{d}B/2|
{gBd}B{e}A{GAG}A:| |:  !
{g}B/2d/2|
{g}e/2a/2g/2a/2e/2{g}e/2{A}e/2d/2|
{g}e/2a/2{g}a/2e/2a/2g/2{a}f/2e/2|  !
{Gdc}d3/2e/2{g}B/2d/2{g}d/2{G}d/2|
{a}g/2f/2{e}f/2g/2{a}e/2d/2{g}B/2d/2|1
{g}e/2a/2g/2a/2e/2{g}e/2{A}e/2d/2|  !
{g}e/2a/2{g}a/2e/2a/2g/2{a}f/2e/2|
{a}g/2f/2{g}e/2g/2{a}f/2e/2{g}G/2{d}B/2|
{gBd}B{e}A{GAG}A:|2  !
{g}e{ag}a{AGAG}A3/2{d}B/2|
{g}A/2a/2{g}a/2e/2{A}e/2a/2g/2e/2|
{a}g/2f/2{g}e/2g/2{a}f/2e/2{g}G/2{d}B/2|  !
{gBd}B{e}A{GAG}A|]
